X: 84
T:Jota Enxebre
M:3/4
L:1/8
Q:260
C:Trad
S:Rep. Euxemes de Arbo
R:Jota
K:C
GFED | GFED E2 | C2 GFED | GFED E2- | E2 GFED | 
GFED E2 | C2 B,CDE | GFED C2- |1 C2 :|2 C6- | C"F."G C"F."G C2 |:
E3 "F."c E"F."c | E2F2E2 | D2 ED C2- | C"F."G C"F."G C2| F3 "F."c F"F."c
 | F2G2F2 | 
EFED E2- | E2 C"F."G C2 :| E3 "F."c E"F."c | E2F2E2 D2 ED C2- | C6- | "D
.C."C2

